source/img/svg/icon-scroll.svg

<svg viewBox="0 0 76 132" xmlns="http://www.w3.org/2000/svg"><path class="st0" d="M37.5 76h1v55.5h-1zm.5-11c-14.9 0-27-12.1-27-27s12.1-27 27-27 27 12.1 27 27-12.1 27-27 27zm0-53c-14.3 0-26 11.7-26 26s11.7 26 26 26 26-11.7 26-26-11.7-26-26-26zm1.9 64v-1c1.3-.1 2.6-.2 3.9-.4l.2 1c-1.4.2-2.8.3-4.1.4zm-4.1-.1c-1.3-.1-2.7-.2-4-.4l.2-1c1.3.2 2.6.4 3.9.4l-.1 1zm12.1-1.2l-.3-1c1.3-.3 2.5-.8 3.7-1.2l.4.9c-1.2.5-2.5 1-3.8 1.3zm-20.1-.1c-1.3-.4-2.6-.8-3.8-1.3l.4-.9c1.2.5 2.5.9 3.7 1.3l-.3.9zm27.6-2.8l-.4-.9c1.2-.6 2.3-1.3 3.4-2l.6.8c-1.2.8-2.4 1.5-3.6 2.1zm-35.1-.2c-1.2-.6-2.4-1.3-3.5-2.1l.6-.8c1.1.7 2.2 1.4 3.4 2l-.5.9zm41.9-4.3l-.6-.8c1-.8 2-1.7 2.9-2.7l.7.7c-1 1.1-2 2-3 2.8zm-48.6-.2c-1-.9-2-1.8-3-2.8l.7-.7c.9.9 1.9 1.8 2.9 2.7l-.6.8zm54.2-5.5l-.8-.7c.8-1 1.6-2.1 2.3-3.2l.8.5c-.7 1.2-1.4 2.3-2.3 3.4zM8 61.3c-.8-1.1-1.6-2.2-2.3-3.3l.9-.5c.7 1.1 1.4 2.2 2.3 3.2l-.9.6zm64.1-6.6l-.9-.4c.6-1.2 1.1-2.4 1.5-3.6l.9.3c-.3 1.2-.9 2.5-1.5 3.7zm-68.4-.3c-.6-1.2-1.1-2.5-1.6-3.7l.9-.3c.4 1.2.9 2.5 1.5 3.6l-.8.4zm71.2-7.3l-1-.2c.3-1.3.6-2.6.7-3.9l1 .1c-.1 1.4-.4 2.7-.7 4zM1 46.8c-.3-1.3-.6-2.6-.7-4l1-.1c.2 1.3.4 2.6.7 3.9l-1 .2zm75-7.7h-1V38c0-1 0-1.9-.1-2.9l1-.1c.1 1 .1 2 .1 3v1.1zm-76-.3V38c0-1.1 0-2.2.1-3.3l1 .1C1 35.9 1 36.9 1 38v.8H0zm74.4-7.6c-.2-1.3-.5-2.6-.9-3.8l1-.3c.4 1.3.7 2.6 1 3.9l-1.1.2zm-72.7-.3l-1-.2c.3-1.3.6-2.6 1-3.9l1 .3c-.5 1.2-.8 2.5-1 3.8zm70.4-7.2c-.5-1.2-1.1-2.4-1.7-3.5l.9-.5c.7 1.2 1.2 2.4 1.8 3.6l-1 .4zM4 23.4l-.9-.4c.5-1.2 1.1-2.5 1.8-3.6l.9.5C5.1 21 4.5 22.2 4 23.4zm64.3-6.6c-.8-1.1-1.6-2.1-2.4-3.1l.8-.7c.9 1 1.7 2.1 2.5 3.2l-.9.6zm-60.4-.3L7 16c.8-1.1 1.6-2.2 2.5-3.2l.7.7c-.8.9-1.6 2-2.3 3zm55.2-5.7c-1-.9-2-1.7-3-2.5l.6-.8c1.1.8 2.1 1.7 3.1 2.6l-.7.7zm-50-.2l-.7-.7c1-.9 2-1.8 3.1-2.6l.6.8c-1 .8-2 1.7-3 2.5zm43.7-4.5c-1.1-.7-2.3-1.3-3.5-1.8l.4-.9c1.2.6 2.4 1.2 3.6 1.9l-.5.8zM19.4 6l-.5-.9c1.2-.7 2.4-1.3 3.6-1.8l.5.9c-1.2.5-2.4 1.1-3.6 1.8zm30.2-3.1c-1.2-.4-2.5-.8-3.8-1l.2-1c1.3.3 2.6.6 3.9 1.1l-.3.9zm-23-.1l-.3-1c1.3-.4 2.6-.8 3.9-1l.2 1c-1.2.2-2.5.6-3.8 1zm15.3-1.6c-2.5-.3-5.1-.3-7.6 0l-.1-1c2.6-.3 5.2-.2 7.8 0l-.1 1z"/></svg>

<svg viewBox="0 0 76 132" xmlns="http://www.w3.org/2000/svg">
<g>
  <rect x="37.5" y="76" class="st0" width="1" height="55.5"/>
</g>
<g>
  <path class="st0" d="M38,65c-14.9,0-27-12.1-27-27s12.1-27,27-27s27,12.1,27,27S52.9,65,38,65z M38,12c-14.3,0-26,11.7-26,26
    s11.7,26,26,26c14.3,0,26-11.7,26-26S52.3,12,38,12z"/>
</g>
<g>
  <path class="st0" d="M39.9,76l0-1c1.3-0.1,2.6-0.2,3.9-0.4l0.2,1C42.6,75.8,41.2,75.9,39.9,76z M35.8,75.9c-1.3-0.1-2.7-0.2-4-0.4
    l0.2-1c1.3,0.2,2.6,0.4,3.9,0.4L35.8,75.9z M47.9,74.7l-0.3-1c1.3-0.3,2.5-0.8,3.7-1.2l0.4,0.9C50.5,73.9,49.2,74.4,47.9,74.7z
    M27.8,74.6c-1.3-0.4-2.6-0.8-3.8-1.3l0.4-0.9c1.2,0.5,2.5,0.9,3.7,1.3L27.8,74.6z M55.4,71.8L55,70.9c1.2-0.6,2.3-1.3,3.4-2
    l0.6,0.8C57.8,70.5,56.6,71.2,55.4,71.8z M20.3,71.6c-1.2-0.6-2.4-1.3-3.5-2.1l0.6-0.8c1.1,0.7,2.2,1.4,3.4,2L20.3,71.6z
    M62.2,67.3l-0.6-0.8c1-0.8,2-1.7,2.9-2.7l0.7,0.7C64.2,65.6,63.2,66.5,62.2,67.3z M13.6,67.1c-1-0.9-2-1.8-3-2.8l0.7-0.7
    c0.9,0.9,1.9,1.8,2.9,2.7L13.6,67.1z M67.8,61.6L67,60.9c0.8-1,1.6-2.1,2.3-3.2l0.8,0.5C69.4,59.4,68.7,60.5,67.8,61.6z M8,61.3
    c-0.8-1.1-1.6-2.2-2.3-3.3l0.9-0.5c0.7,1.1,1.4,2.2,2.3,3.2L8,61.3z M72.1,54.7l-0.9-0.4c0.6-1.2,1.1-2.4,1.5-3.6l0.9,0.3
    C73.3,52.2,72.7,53.5,72.1,54.7z M3.7,54.4c-0.6-1.2-1.1-2.5-1.6-3.7l0.9-0.3c0.4,1.2,0.9,2.5,1.5,3.6L3.7,54.4z M74.9,47.1l-1-0.2
    c0.3-1.3,0.6-2.6,0.7-3.9l1,0.1C75.5,44.5,75.2,45.8,74.9,47.1z M1,46.8c-0.3-1.3-0.6-2.6-0.7-4l1-0.1C1.5,44,1.7,45.3,2,46.6
    L1,46.8z M76,39.1l-1,0c0-0.4,0-0.7,0-1.1c0-1,0-1.9-0.1-2.9l1-0.1c0.1,1,0.1,2,0.1,3C76,38.4,76,38.7,76,39.1z M0,38.8
    c0-0.3,0-0.5,0-0.8c0-1.1,0-2.2,0.1-3.3l1,0.1C1,35.9,1,36.9,1,38c0,0.3,0,0.5,0,0.8L0,38.8z M74.4,31.2c-0.2-1.3-0.5-2.6-0.9-3.8
    l1-0.3c0.4,1.3,0.7,2.6,1,3.9L74.4,31.2z M1.7,30.9l-1-0.2c0.3-1.3,0.6-2.6,1-3.9l1,0.3C2.2,28.3,1.9,29.6,1.7,30.9z M72.1,23.7
    c-0.5-1.2-1.1-2.4-1.7-3.5l0.9-0.5c0.7,1.2,1.2,2.4,1.8,3.6L72.1,23.7z M4,23.4L3.1,23c0.5-1.2,1.1-2.5,1.8-3.6l0.9,0.5
    C5.1,21,4.5,22.2,4,23.4z M68.3,16.8c-0.8-1.1-1.6-2.1-2.4-3.1l0.8-0.7c0.9,1,1.7,2.1,2.5,3.2L68.3,16.8z M7.9,16.5L7,16
    c0.8-1.1,1.6-2.2,2.5-3.2l0.7,0.7C9.4,14.4,8.6,15.5,7.9,16.5z M63.1,10.8c-1-0.9-2-1.7-3-2.5l0.6-0.8c1.1,0.8,2.1,1.7,3.1,2.6
    L63.1,10.8z M13.1,10.6l-0.7-0.7c1-0.9,2-1.8,3.1-2.6l0.6,0.8C15.1,8.9,14.1,9.8,13.1,10.6z M56.8,6.1c-1.1-0.7-2.3-1.3-3.5-1.8
    l0.4-0.9c1.2,0.6,2.4,1.2,3.6,1.9L56.8,6.1z M19.4,6l-0.5-0.9c1.2-0.7,2.4-1.3,3.6-1.8L23,4.2C21.8,4.7,20.6,5.3,19.4,6z M49.6,2.9
    c-1.2-0.4-2.5-0.8-3.8-1l0.2-1c1.3,0.3,2.6,0.6,3.9,1.1L49.6,2.9z M26.6,2.8l-0.3-1c1.3-0.4,2.6-0.8,3.9-1l0.2,1
    C29.2,2,27.9,2.4,26.6,2.8z M41.9,1.2c-2.5-0.3-5.1-0.3-7.6,0l-0.1-1c2.6-0.3,5.2-0.2,7.8,0L41.9,1.2z"/>
</g>
</svg>
